icons/milestone-16.svg

<svg width="16" height="16" viewBox="0 0 16 16" xmlns="http://www.w3.org/2000/svg">
  <path fill-rule="evenodd" clip-rule="evenodd" d="M7.75 0C7.94891 0 8.13968 0.0790176 8.28033 0.21967C8.42098 0.360322 8.5 0.551088 8.5 0.75V3H12.134C12.548 3 12.948 3.147 13.264 3.414L15.334 5.164C15.5282 5.32828 15.6842 5.53291 15.7912 5.76364C15.8982 5.99437 15.9537 6.24566 15.9537 6.5C15.9537 6.75434 15.8982 7.00563 15.7912 7.23636C15.6842 7.46709 15.5282 7.67172 15.334 7.836L13.264 9.586C12.9481 9.85325 12.5478 9.99993 12.134 10H8.5V15.25C8.5 15.4489 8.42098 15.6397 8.28033 15.7803C8.13968 15.921 7.94891 16 7.75 16C7.55109 16 7.36032 15.921 7.21967 15.7803C7.07902 15.6397 7 15.4489 7 15.25V10H2.75C2.28587 10 1.84075 9.81563 1.51256 9.48744C1.18437 9.15925 1 8.71413 1 8.25V4.75C1 3.784 1.784 3 2.75 3H7V0.75C7 0.551088 7.07902 0.360322 7.21967 0.21967C7.36032 0.0790176 7.55109 0 7.75 0V0ZM7.75 8.5H12.134C12.1931 8.49965 12.2501 8.47839 12.295 8.44L14.365 6.69C14.3924 6.66653 14.4145 6.63739 14.4296 6.60459C14.4447 6.57179 14.4525 6.53611 14.4525 6.5C14.4525 6.46389 14.4447 6.42821 14.4296 6.39541C14.4145 6.36261 14.3924 6.33347 14.365 6.31L12.295 4.56C12.2501 4.52161 12.1931 4.50035 12.134 4.5H2.75C2.6837 4.5 2.62011 4.52634 2.57322 4.57322C2.52634 4.62011 2.5 4.6837 2.5 4.75V8.25C2.5 8.388 2.612 8.5 2.75 8.5H7.75Z"/>
</svg>

<svg xmlns="http://www.w3.org/2000/svg" width="16" height="16" viewBox="0 0 16 16"><path fill-rule="evenodd" d="M7.75 0a.75.75 0 01.75.75V3h3.634c.414 0 .814.147 1.13.414l2.07 1.75a1.75 1.75 0 010 2.672l-2.07 1.75a1.75 1.75 0 01-1.13.414H8.5v5.25a.75.75 0 11-1.5 0V10H2.75A1.75 1.75 0 011 8.25v-3.5C1 3.784 1.784 3 2.75 3H7V.75A.75.75 0 017.75 0zm0 8.5h4.384a.25.25 0 00.161-.06l2.07-1.75a.25.25 0 000-.38l-2.07-1.75a.25.25 0 00-.161-.06H2.75a.25.25 0 00-.25.25v3.5c0 .138.112.25.25.25h5z"/></svg>
